packages/icons/src/assets/raw/outlined/SVG/outlined-finance-transfermoney.svg

<svg viewBox="0 0 24 24" xmlns="http://www.w3.org/2000/svg">
  <path d="M 19.34 12.77 C 19.064 12.759 18.849 12.526 18.86 12.25 C 19.09 7.02 13.573 3.502 8.929 5.918 C 7.643 6.586 6.613 7.643 5.977 8.925 L 7.42 8.42 C 7.679 8.332 7.962 8.464 8.06 8.72 C 8.154 8.98 8.019 9.266 7.76 9.36 L 5.29 10.24 L 5.179 10.246 C 5.105 10.258 5.027 10.253 4.95 10.23 C 4.77 10.175 4.645 10.027 4.611 9.855 L 3.8 7.44 C 3.72 7.178 3.862 6.9 4.12 6.81 C 4.38 6.718 4.665 6.858 4.75 7.12 L 5.164 8.355 C 6.549 5.767 9.299 4.13 12.31 4.22 C 16.614 4.377 19.981 7.985 19.84 12.29 C 19.829 12.558 19.609 12.77 19.34 12.77 Z M 12 19.8 L 11.74 19.8 C 7.462 19.653 4.106 16.079 4.23 11.8 C 4.235 11.525 4.465 11.309 4.74 11.32 C 5.016 11.325 5.236 11.554 5.23 11.83 C 5.095 15.576 8.034 18.716 11.78 18.83 C 14.42 18.9 16.828 17.447 18.022 15.159 L 16.64 15.65 C 16.378 15.737 16.094 15.6 16 15.34 C 15.906 15.08 16.041 14.794 16.3 14.7 L 18.77 13.83 C 18.896 13.785 19.034 13.785 19.16 13.83 C 19.278 13.891 19.367 13.995 19.41 14.12 L 20.28 16.59 C 20.373 16.847 20.238 17.13 19.98 17.22 C 19.93 17.245 19.876 17.262 19.82 17.27 C 19.609 17.27 19.422 17.138 19.35 16.94 L 18.89 15.645 C 17.551 18.163 14.919 19.789 12 19.8 Z M 9.85 14.54 C 9.779 14.324 9.742 14.098 9.74 13.87 C 9.74 13.485 10.157 13.245 10.49 13.437 C 10.645 13.526 10.74 13.691 10.74 13.87 C 10.738 13.993 10.758 14.115 10.8 14.23 C 10.948 14.697 11.361 15.007 11.82 15.045 C 11.84 15.042 11.86 15.04 11.88 15.04 C 11.909 15.04 11.938 15.043 11.966 15.047 C 12.071 15.043 12.176 15.024 12.28 14.99 C 12.76 14.814 13.074 14.351 13.06 13.84 C 13.06 13.534 12.885 13.254 12.61 13.12 L 10.79 12.24 C 10.157 11.913 9.768 11.252 9.79 10.54 C 9.77 9.729 10.218 8.979 10.94 8.61 C 11.082 8.543 11.229 8.491 11.38 8.453 L 11.38 8 C 11.385 7.726 11.606 7.505 11.88 7.5 C 12.156 7.5 12.38 7.724 12.38 8 L 12.38 8.436 C 13.351 8.658 14.082 9.514 14.11 10.55 C 14.11 10.826 13.886 11.05 13.61 11.05 C 13.344 11.036 13.13 10.826 13.11 10.56 C 13.099 9.909 12.571 9.385 11.92 9.38 C 11.743 9.389 11.57 9.433 11.41 9.51 C 11.037 9.703 10.805 10.09 10.81 10.51 C 10.795 10.851 10.983 11.169 11.29 11.32 L 13.11 12.19 C 13.72 12.5 14.106 13.125 14.11 13.81 C 14.126 14.754 13.539 15.603 12.65 15.92 C 12.561 15.951 12.471 15.976 12.38 15.996 L 12.38 16.42 C 12.38 16.696 12.156 16.92 11.88 16.92 C 11.606 16.915 11.385 16.694 11.38 16.42 L 11.38 15.984 C 10.666 15.804 10.079 15.266 9.85 14.54 Z"/>
</svg>

<svg xmlns="http://www.w3.org/2000/svg" viewBox="0 0 24 24">
  <path d="M19.34 12.77a.5.5 0 01-.48-.52A6.8 6.8 0 005.58 9.91a.51.51 0 01-.63.32.49.49 0 01-.32-.63 7.84 7.84 0 017.68-5.38 7.82 7.82 0 017.53 8.07.5.5 0 01-.5.48z"/>
  <path d="M5.1 10.25a.44.44 0 01-.22-.05.48.48 0 01-.25-.29L3.8 7.44a.51.51 0 01.32-.63.49.49 0 01.63.31l.67 2 2-.7a.51.51 0 01.64.3.5.5 0 01-.3.64l-2.47.88zM12 19.8h-.26a7.78 7.78 0 01-7.51-8 .49.49 0 01.51-.48.5.5 0 01.49.51 6.76 6.76 0 006.55 7 6.84 6.84 0 006.66-4.65.49.49 0 01.63-.32.5.5 0 01.32.63A7.84 7.84 0 0112 19.8z"/>
  <path d="M19.82 17.27a.5.5 0 01-.47-.33l-.71-2-2 .71a.51.51 0 01-.64-.31.5.5 0 01.3-.64l2.47-.87a.58.58 0 01.39 0 .51.51 0 01.25.29l.87 2.47a.49.49 0 01-.3.63.51.51 0 01-.16.05zM11.91 16.05a2.16 2.16 0 01-2.06-1.51 2.19 2.19 0 01-.11-.67.5.5 0 111 0 1 1 0 00.06.36 1.17 1.17 0 001.48.76 1.19 1.19 0 00.78-1.15.8.8 0 00-.45-.72l-1.82-.88a1.85 1.85 0 01-1-1.7 2.11 2.11 0 011.15-1.93 2.45 2.45 0 01.95-.23 2.23 2.23 0 012.22 2.17.5.5 0 01-.5.5.53.53 0 01-.5-.49 1.2 1.2 0 00-1.19-1.18 1.33 1.33 0 00-.51.13 1.11 1.11 0 00-.6 1 .86.86 0 00.48.81l1.82.87a1.83 1.83 0 011 1.62 2.2 2.2 0 01-1.46 2.11 2.37 2.37 0 01-.74.13z"/>
  <path d="M11.88 16.92a.51.51 0 01-.5-.5v-.88a.51.51 0 01.5-.5.5.5 0 01.5.5v.88a.5.5 0 01-.5.5zM11.88 9.38a.5.5 0 01-.5-.5V8a.51.51 0 01.5-.5.5.5 0 01.5.5v.84a.5.5 0 01-.5.54z"/>
</svg>
